en/_assets/api-gateway/spec-constructor/cloud-functions.svg

<?xml version="1.0" encoding="UTF-8"?>
<svg xmlns="http://www.w3.org/2000/svg" xmlns:xlink="http://www.w3.org/1999/xlink" width="16px" height="16px" viewBox="0 0 16 16" version="1.1">
<g id="surface1">
<path style=" stroke:none;fill-rule:nonzero;fill:rgb(32.156863%,50.980392%,100%);fill-opacity:1;" d="M 7.476562 12.773438 C 7.027344 13.148438 6.464844 13.332031 5.792969 13.332031 C 5.445312 13.332031 5.195312 13.304688 5.046875 13.25 L 5.046875 11.953125 C 5.109375 11.96875 5.21875 11.988281 5.375 12.007812 C 5.53125 12.027344 5.671875 12.039062 5.792969 12.039062 C 6.121094 12.039062 6.359375 11.945312 6.507812 11.761719 C 6.65625 11.578125 6.757812 11.304688 6.8125 10.9375 L 7.464844 7.09375 L 6.601562 7.09375 L 6.847656 5.878906 L 7.675781 5.878906 L 7.816406 5.039062 C 7.949219 4.203125 8.242188 3.601562 8.691406 3.226562 C 9.144531 2.851562 9.714844 2.667969 10.410156 2.667969 C 10.574219 2.667969 10.714844 2.675781 10.835938 2.691406 C 10.957031 2.707031 11.046875 2.722656 11.109375 2.738281 L 11.109375 4.058594 C 11.050781 4.035156 10.941406 4.011719 10.785156 4 C 10.628906 3.984375 10.488281 3.976562 10.363281 3.976562 C 10.035156 3.976562 9.800781 4.0625 9.65625 4.238281 C 9.511719 4.414062 9.410156 4.679688 9.347656 5.039062 L 9.207031 5.878906 L 10.609375 5.878906 L 10.363281 7.09375 L 8.996094 7.09375 L 8.351562 10.960938 C 8.222656 11.796875 7.929688 12.398438 7.476562 12.773438 Z M 4.699219 15.980469 C 4.867188 15.96875 5.050781 15.945312 5.253906 15.90625 L 5.328125 15.894531 L 5.328125 14.746094 L 5.222656 14.765625 C 4.871094 14.835938 4.574219 14.871094 4.339844 14.871094 C 3.773438 14.871094 3.378906 14.738281 3.171875 14.476562 C 2.964844 14.203125 2.859375 13.859375 2.859375 13.445312 C 2.859375 13.175781 2.878906 12.921875 2.925781 12.652344 L 3.164062 11.269531 C 3.207031 11.023438 3.226562 10.742188 3.226562 10.4375 C 3.226562 10.183594 3.203125 9.9375 3.15625 9.703125 C 3.105469 9.464844 3.011719 9.238281 2.871094 9.023438 C 2.730469 8.8125 2.539062 8.609375 2.304688 8.421875 C 2.113281 8.269531 1.875 8.132812 1.589844 8.007812 C 1.871094 7.886719 2.113281 7.746094 2.3125 7.589844 C 2.554688 7.402344 2.742188 7.195312 2.878906 6.96875 C 3.011719 6.746094 3.105469 6.507812 3.15625 6.261719 C 3.203125 6.019531 3.226562 5.773438 3.226562 5.519531 C 3.226562 5.222656 3.207031 4.945312 3.164062 4.703125 L 2.917969 3.300781 C 2.878906 3.066406 2.859375 2.816406 2.859375 2.554688 C 2.859375 2.121094 2.964844 1.769531 3.179688 1.507812 C 3.390625 1.253906 3.789062 1.125 4.355469 1.125 C 4.484375 1.125 4.617188 1.132812 4.761719 1.152344 C 4.90625 1.167969 5.328125 1.226562 5.328125 1.226562 L 5.328125 0.0976562 L 4.703125 0.0273438 C 4.53125 0.0078125 4.363281 0 4.199219 0 C 3.269531 0 2.582031 0.234375 2.148438 0.699219 C 1.71875 1.160156 1.5 1.773438 1.5 2.523438 C 1.5 2.816406 1.523438 3.085938 1.570312 3.324219 C 1.617188 3.566406 1.667969 3.804688 1.722656 4.039062 C 1.773438 4.277344 1.824219 4.515625 1.871094 4.761719 C 1.917969 5.003906 1.941406 5.273438 1.941406 5.558594 C 1.941406 5.792969 1.917969 6.023438 1.871094 6.234375 C 1.828125 6.441406 1.742188 6.621094 1.605469 6.78125 C 1.476562 6.941406 1.289062 7.078125 1.046875 7.1875 C 0.808594 7.300781 0.480469 7.375 0.078125 7.410156 L 0 7.417969 L 0 8.585938 L 0.0820312 8.589844 C 0.503906 8.625 0.839844 8.703125 1.078125 8.828125 C 1.320312 8.953125 1.503906 9.101562 1.632812 9.269531 C 1.757812 9.441406 1.839844 9.640625 1.878906 9.859375 C 1.921875 10.09375 1.941406 10.335938 1.941406 10.585938 C 1.941406 10.859375 1.917969 11.113281 1.871094 11.34375 C 1.824219 11.574219 1.773438 11.808594 1.722656 12.039062 C 1.667969 12.269531 1.617188 12.5 1.570312 12.734375 C 1.523438 12.972656 1.5 13.226562 1.5 13.511719 C 1.5 14.25 1.714844 14.855469 2.140625 15.308594 C 2.566406 15.765625 3.257812 16 4.199219 16 C 4.363281 16 4.53125 15.992188 4.699219 15.980469 Z M 11.800781 16 C 12.742188 16 13.433594 15.765625 13.859375 15.3125 C 14.285156 14.855469 14.5 14.253906 14.5 13.511719 C 14.5 13.230469 14.476562 12.976562 14.425781 12.738281 C 14.382812 12.503906 14.332031 12.269531 14.277344 12.039062 C 14.226562 11.808594 14.175781 11.578125 14.128906 11.34375 C 14.082031 11.113281 14.058594 10.859375 14.058594 10.585938 C 14.058594 10.339844 14.078125 10.09375 14.117188 9.859375 C 14.15625 9.640625 14.242188 9.441406 14.367188 9.269531 C 14.492188 9.101562 14.679688 8.953125 14.917969 8.832031 C 15.160156 8.707031 15.496094 8.625 15.917969 8.59375 L 16 8.585938 L 16 7.417969 L 15.921875 7.410156 C 15.515625 7.375 15.191406 7.300781 14.953125 7.1875 C 14.710938 7.078125 14.523438 6.941406 14.390625 6.78125 C 14.257812 6.621094 14.171875 6.441406 14.128906 6.234375 C 14.082031 6.023438 14.058594 5.792969 14.058594 5.558594 C 14.058594 5.273438 14.082031 5.003906 14.128906 4.761719 C 14.175781 4.515625 14.226562 4.273438 14.277344 4.039062 C 14.332031 3.804688 14.382812 3.566406 14.429688 3.324219 C 14.476562 3.082031 14.5 2.816406 14.5 2.519531 C 14.5 1.773438 14.28125 1.160156 13.851562 0.695312 C 13.417969 0.234375 12.730469 0 11.800781 0 C 11.632812 0 11.464844 0.0078125 11.296875 0.0273438 L 10.671875 0.0976562 L 10.671875 1.226562 C 10.671875 1.226562 11.09375 1.171875 11.238281 1.152344 C 11.382812 1.136719 11.515625 1.128906 11.644531 1.128906 C 12.210938 1.128906 12.609375 1.257812 12.820312 1.511719 C 13.035156 1.769531 13.140625 2.121094 13.140625 2.558594 C 13.140625 2.816406 13.121094 3.066406 13.082031 3.300781 L 12.835938 4.703125 C 12.792969 4.949219 12.773438 5.222656 12.773438 5.523438 C 12.773438 5.773438 12.796875 6.023438 12.84375 6.261719 C 12.894531 6.507812 12.988281 6.746094 13.121094 6.96875 C 13.253906 7.195312 13.445312 7.40625 13.6875 7.59375 C 13.886719 7.746094 14.128906 7.886719 14.410156 8.007812 C 14.125 8.132812 13.886719 8.273438 13.695312 8.425781 C 13.460938 8.609375 13.269531 8.8125 13.128906 9.023438 C 12.988281 9.238281 12.894531 9.46875 12.84375 9.707031 C 12.796875 9.941406 12.773438 10.1875 12.773438 10.4375 C 12.773438 10.746094 12.792969 11.027344 12.835938 11.269531 L 13.074219 12.652344 C 13.121094 12.921875 13.140625 13.179688 13.140625 13.445312 C 13.140625 13.859375 13.035156 14.207031 12.828125 14.476562 C 12.621094 14.738281 12.226562 14.871094 11.660156 14.871094 C 11.425781 14.871094 11.125 14.839844 10.777344 14.769531 L 10.671875 14.75 L 10.671875 15.898438 L 10.746094 15.910156 C 10.949219 15.945312 11.132812 15.972656 11.300781 15.984375 C 11.46875 15.992188 11.636719 16 11.800781 16 Z M 11.800781 16 "/>
</g>
</svg>

<svg xmlns="http://www.w3.org/2000/svg" width="16" height="16" viewBox="0 0 16 16">
    <path d="M7.477 12.773c-.45.375-1.012.559-1.684.559-.348 0-.598-.027-.746-.082v-1.297c.062.016.172.035.328.055.156.02.297.031.418.031.328 0 .566-.094.715-.277.148-.184.25-.457.304-.825l.653-3.843h-.863l.246-1.215h.828l.14-.84c.133-.836.426-1.437.875-1.812.454-.375 1.024-.559 1.72-.559.163 0 .304.008.425.023.121.016.21.032.273.047v1.32A1.2 1.2 0 0 0 10.785 4a4.28 4.28 0 0 0-.422-.023c-.328 0-.562.086-.707.261-.144.176-.246.442-.308.801l-.141.84h1.402l-.246 1.215H8.996l-.644 3.867c-.13.836-.422 1.437-.875 1.812ZM4.699 15.98a4.51 4.51 0 0 0 .555-.074l.074-.011v-1.149l-.105.02a4.7 4.7 0 0 1-.883.105c-.567 0-.961-.133-1.168-.394-.207-.274-.313-.618-.313-1.032 0-.27.02-.523.067-.793l.238-1.382a4.91 4.91 0 0 0 .063-.832c0-.254-.024-.5-.07-.735a1.987 1.987 0 0 0-.286-.68 2.71 2.71 0 0 0-.566-.601 3.221 3.221 0 0 0-.715-.414c.281-.121.523-.262.722-.418.243-.188.43-.395.567-.621a2.28 2.28 0 0 0 .277-.707 3.88 3.88 0 0 0 .07-.742c0-.297-.019-.575-.062-.817l-.246-1.402a4.55 4.55 0 0 1-.059-.746c0-.434.106-.785.32-1.047.212-.254.61-.383 1.176-.383.13 0 .262.008.407.027.144.016.566.075.566.075V.097l-.625-.07A4.452 4.452 0 0 0 4.2 0c-.93 0-1.617.234-2.05.7-.43.46-.649 1.073-.649 1.823 0 .293.023.563.07.801.047.242.098.48.153.715.05.238.101.477.148.723.047.242.07.511.07.797 0 .234-.023.464-.07.675a1.195 1.195 0 0 1-.266.547 1.49 1.49 0 0 1-.558.407c-.239.112-.568.187-.97.222L0 7.418v1.168l.082.004c.422.035.758.113.996.238.242.125.426.274.555.442.125.171.207.37.246.59.043.234.062.476.062.726 0 .273-.023.527-.07.758-.047.23-.098.465-.148.695-.055.23-.106.461-.153.695-.047.239-.07.493-.07.778 0 .738.215 1.343.64 1.797.426.457 1.118.691 2.06.691.163 0 .331-.008.5-.02Zm7.102.02c.941 0 1.633-.234 2.058-.688.426-.457.641-1.058.641-1.8 0-.282-.023-.535-.074-.774a13.879 13.879 0 0 0-.149-.699c-.05-.23-.101-.46-.148-.695a3.816 3.816 0 0 1-.07-.758c0-.246.02-.492.058-.727a1.44 1.44 0 0 1 .25-.59c.125-.167.313-.316.551-.437.242-.125.578-.207 1-.238L16 8.586V7.418l-.078-.008c-.406-.035-.73-.11-.969-.223a1.54 1.54 0 0 1-.562-.406 1.229 1.229 0 0 1-.262-.547 3.145 3.145 0 0 1-.07-.675c0-.286.023-.555.07-.797.047-.246.098-.489.148-.723.055-.234.106-.473.153-.715s.07-.508.07-.804c0-.747-.219-1.36-.648-1.825C13.418.235 12.73 0 11.8 0a4.48 4.48 0 0 0-.504.027l-.625.07v1.13l.566-.075c.145-.015.278-.023.407-.023.566 0 .964.129 1.175.383.215.258.32.61.32 1.047 0 .257-.019.507-.058.742l-.246 1.402c-.043.246-.063.52-.063.82 0 .25.024.5.07.739a2.227 2.227 0 0 0 .844 1.332c.2.152.442.293.723.414a3.224 3.224 0 0 0-.715.418 2.614 2.614 0 0 0-.566.597c-.14.215-.234.446-.285.684a3.72 3.72 0 0 0-.07.73c0 .31.019.59.062.833l.238 1.382c.047.27.067.528.067.793 0 .414-.106.762-.313 1.032-.207.261-.601.394-1.168.394-.234 0-.535-.031-.883-.101l-.105-.02v1.148l.074.012c.203.035.387.063.555.074.168.008.336.016.5.016Zm0 0" style="stroke:none;fill-rule:nonzero;fill:#5282ff;fill-opacity:1"/>
</svg>
